public/lut.cube
#Created by: Affinity Photo (Serif Europe Ltd.)
TITLE "film-01"
#LUT size
LUT_3D_SIZE 17
#data domain
DOMAIN_MIN 0.0 0.0 0.0
DOMAIN_MAX 1.0 1.0 1.0
#LUT data points
0.041199 0.070964 0.109267
0.074450 0.071386 0.109595
0.125091 0.071291 0.109733
0.189425 0.070371 0.109485
0.263633 0.068347 0.108859
0.344063 0.067691 0.107451
0.426095 0.067322 0.105484
0.503910 0.066392 0.103287
0.576825 0.065091 0.101041
0.644852 0.063571 0.098776
0.708821 0.061929 0.096356
0.769513 0.060228 0.093805
0.827562 0.058512 0.091252
0.883483 0.056815 0.088758
0.937670 0.055163 0.086349
0.990184 0.053589 0.084052
0.990846 0.053569 0.083704
0.035898 0.101624 0.105849
0.069581 0.100217 0.104157
0.118789 0.098516 0.104346
0.180878 0.096131 0.104298
0.252715 0.092637 0.103871
0.331020 0.087792 0.103007
0.412333 0.081611 0.101764
0.493531 0.074003 0.100280
0.572051 0.065196 0.098692
0.644445 0.063590 0.096132
0.708476 0.061947 0.093673
0.769169 0.060246 0.091189
0.827117 0.058531 0.089181
0.882807 0.056839 0.087264
0.936757 0.055192 0.085449
0.989078 0.053622 0.083759
0.990846 0.053569 0.083704
0.028312 0.148487 0.101453
0.054049 0.147745 0.097790
0.111107 0.143011 0.098487
0.171910 0.139363 0.098766
0.241856 0.134884 0.098758
0.317948 0.129309 0.098291
0.396912 0.122646 0.097388
0.475552 0.114859 0.096173
0.551323 0.105664 0.094741
0.623110 0.095391 0.093216
0.691491 0.084141 0.091583
0.757496 0.072007 0.090405
0.822623 0.058666 0.089337
0.882033 0.056862 0.087290
0.936072 0.055213 0.085472
0.988434 0.053641 0.083780
0.990846 0.053569 0.083704
0.019975 0.206824 0.097788
0.033266 0.205760 0.092189
0.098179 0.202610 0.092982
0.162630 0.194043 0.093729
0.232252 0.188634 0.093809
0.307939 0.182333 0.093655
0.386872 0.175108 0.092997
0.465838 0.166966 0.091912
0.541560 0.157998 0.090537
0.612888 0.148392 0.089285
0.680149 0.138162 0.088048
0.744489 0.126666 0.086852
0.806146 0.114112 0.085723
0.865502 0.100573 0.084681
0.923096 0.086023 0.083740
0.979294 0.070674 0.082910
0.990772 0.056162 0.083511
0.016126 0.271681 0.094436
0.016560 0.272636 0.087550
0.068027 0.266879 0.088503
0.157729 0.262687 0.089549
0.223128 0.250743 0.090155
0.299733 0.244051 0.090114
0.379729 0.236513 0.089630
0.459918 0.228214 0.088786
0.536944 0.219269 0.087724
0.609199 0.209777 0.086575
0.677200 0.199748 0.085411
0.741529 0.189237 0.084276
0.802682 0.178295 0.083195
0.861169 0.166808 0.082186
0.917545 0.154509 0.081260
0.972176 0.140856 0.080429
0.990261 0.127879 0.080355
0.015093 0.339927 0.091681
0.014774 0.341279 0.085376
0.038347 0.336425 0.085940
0.123816 0.331626 0.087174
0.222801 0.327193 0.087669
0.292536 0.311952 0.087863
0.374200 0.304533 0.087390
0.456343 0.296343 0.086574
0.535012 0.287646 0.085564
0.608532 0.278504 0.084498
0.677415 0.268914 0.083450
0.742257 0.258962 0.082461
0.803682 0.248607 0.081556
0.862162 0.237858 0.080749
0.918159 0.226744 0.080044
0.971771 0.215289 0.079446
0.989742 0.204696 0.079303
0.014660 0.410158 0.089268
0.014400 0.411334 0.084158
0.016516 0.410457 0.084210
0.088162 0.403712 0.085359
0.195171 0.399532 0.086030
0.297970 0.395181 0.085803
0.369428 0.376847 0.085606
0.453492 0.369178 0.084775
0.534391 0.360788 0.083793
0.609321 0.352099 0.082805
0.679032 0.343121 0.081884
0.744352 0.333838 0.081069
0.805931 0.324226 0.080380
0.864309 0.314311 0.079827
0.920003 0.304134 0.079412
0.973136 0.293676 0.079136
0.991114 0.284014 0.079076
0.014510 0.480876 0.086867
0.014330 0.481633 0.083410
0.014330 0.481548 0.083411
0.048215 0.476852 0.083930
0.156878 0.473152 0.084703
0.279587 0.468941 0.084410
0.380478 0.464677 0.083534
0.450514 0.443761 0.083122
0.533104 0.436145 0.082125
0.609885 0.427951 0.081185
0.680562 0.419613 0.080376
0.746335 0.411100 0.079728
0.808058 0.402341 0.079255
0.866211 0.393415 0.078975
0.920612 0.384832 0.078701
0.972572 0.375958 0.078474
0.991288 0.367211 0.078483
0.014355 0.550035 0.084417
0.014272 0.550382 0.082861
0.014272 0.550382 0.082861
0.018028 0.549252 0.082913
0.114042 0.544978 0.083562
0.240010 0.541556 0.083218
0.372466 0.536897 0.081904
0.465523 0.532875 0.080681
0.530794 0.510396 0.080321
0.608705 0.503152 0.079387
0.680059 0.495890 0.078727
0.744808 0.489102 0.078292
0.805396 0.482072 0.077932
0.862660 0.474665 0.077638
0.917183 0.466932 0.077399
0.969176 0.458969 0.077210
0.989317 0.451153 0.077216
0.014005 0.615848 0.082298
0.014004 0.615925 0.082297
0.014004 0.615957 0.082297
0.014005 0.615801 0.082299
0.064197 0.612830 0.082535
0.195563 0.609908 0.082089
0.332879 0.605825 0.080552
0.458165 0.601188 0.078748
0.544679 0.598754 0.077953
0.602415 0.575848 0.077878
0.673199 0.570330 0.077369
0.739029 0.564353 0.076956
0.800507 0.557994 0.076624
0.858155 0.551467 0.076360
0.912918 0.544664 0.076153
0.965017 0.537651 0.075995
0.987187 0.530900 0.075995
0.013395 0.678335 0.081576
0.013394 0.678410 0.081575
0.013393 0.678470 0.081574
0.013395 0.678365 0.081575
0.019427 0.677307 0.081594
0.144715 0.674299 0.081032
0.288343 0.670554 0.079199
0.426318 0.667519 0.077669
0.534118 0.664975 0.076697
0.614052 0.662612 0.076058
0.665609 0.639004 0.076110
0.732022 0.633795 0.075720
0.794198 0.628157 0.075414
0.852697 0.622179 0.075178
0.907806 0.616117 0.075000
0.960096 0.609908 0.074869
0.984954 0.603973 0.074865
0.012375 0.738075 0.080613
0.012373 0.738148 0.080611
0.012372 0.738205 0.080610
0.012373 0.738133 0.080612
0.012377 0.737960 0.080615
0.084906 0.735432 0.080103
0.236807 0.732269 0.078227
0.381388 0.729786 0.076784
0.513668 0.727041 0.075601
0.604344 0.724672 0.074906
0.678098 0.722348 0.074421
0.724359 0.698120 0.074575
0.786971 0.693146 0.074293
0.845913 0.687833 0.074082
0.901835 0.682224 0.073929
0.954452 0.676600 0.073823
0.982664 0.671277 0.073816
0.010920 0.795257 0.079372
0.010918 0.795313 0.079371
0.010916 0.795383 0.079369
0.010918 0.795327 0.079371
0.010922 0.795187 0.079374
0.019552 0.794021 0.079309
0.177934 0.791050 0.077577
0.331738 0.788459 0.076012
0.472653 0.785764 0.074738
0.593678 0.782960 0.073830
0.669157 0.780793 0.073365
0.737690 0.778478 0.073013
0.779293 0.753667 0.073249
0.838590 0.748948 0.073058
0.894728 0.743977 0.072925
0.947987 0.738775 0.072840
0.980378 0.733832 0.072832
0.008827 0.850204 0.078162
0.008825 0.850259 0.078161
0.008822 0.850313 0.078160
0.008823 0.850286 0.078161
0.008828 0.850190 0.078163
0.008837 0.849985 0.078166
0.109929 0.847064 0.077123
0.276321 0.844109 0.075369
0.427078 0.841360 0.073971
0.557158 0.838622 0.072985
0.659488 0.835992 0.072374
0.729390 0.833841 0.072042
0.793398 0.831584 0.071799
0.830894 0.806252 0.072096
0.887358 0.801767 0.071980
0.940804 0.797119 0.071910
0.978165 0.792573 0.071899
0.006333 0.903117 0.077292
0.006330 0.903171 0.077292
0.006327 0.903238 0.077290
0.006328 0.903211 0.077291
0.006332 0.903131 0.077292
0.006340 0.902970 0.077295
0.028147 0.901117 0.077008
0.213911 0.897341 0.074877
0.376358 0.894321 0.073305
0.517036 0.891569 0.072212
0.634019 0.888854 0.071513
0.720607 0.886454 0.071121
0.785768 0.884353 0.070894
0.845966 0.882207 0.070734
0.879852 0.856334 0.071080
0.933583 0.852138 0.071020
0.976105 0.847996 0.071007
0.003869 0.953600 0.076496
0.003866 0.953652 0.076496
0.003864 0.953691 0.076495
0.003864 0.953691 0.076495
0.003867 0.953626 0.076496
0.003875 0.953481 0.076498
0.003885 0.953271 0.076501
0.142547 0.948386 0.074598
0.320099 0.944886 0.072755
0.472692 0.941968 0.071518
0.598689 0.939299 0.070747
0.704554 0.936649 0.070272
0.777943 0.934540 0.070031
0.839102 0.932594 0.069880
0.895934 0.930599 0.069779
0.926311 0.904344 0.070163
0.974274 0.900540 0.070145
0.002144 0.987608 0.075987
0.002144 0.987608 0.075987
0.002144 0.987608 0.075987
0.002144 0.987608 0.075987
0.002144 0.987608 0.075987
0.002144 0.987608 0.075987
0.002144 0.987608 0.075987
0.061352 0.984309 0.074923
0.259253 0.980357 0.072604
0.425165 0.977771 0.071151
0.561809 0.975840 0.070254
0.674201 0.974312 0.069709
0.770816 0.973078 0.069367
0.832900 0.972355 0.069202
0.890379 0.971761 0.069082
0.943594 0.971296 0.068995
0.969192 0.950304 0.069316
0.040341 0.074533 0.126952
0.074337 0.071062 0.127313
0.125943 0.070553 0.127511
0.190528 0.069362 0.127455
0.264892 0.067327 0.126929
0.345427 0.067650 0.124915
0.426303 0.067273 0.122326
0.503860 0.066343 0.119388
0.576665 0.065046 0.116331
0.644740 0.063528 0.113270
0.708739 0.061889 0.110265
0.769487 0.060191 0.107315
0.827615 0.058478 0.104467
0.883649 0.056784 0.101727
0.937970 0.055136 0.099088
0.990648 0.053565 0.096596
0.990934 0.053557 0.095962
0.036359 0.101342 0.117242
0.068985 0.101052 0.120972
0.117501 0.100568 0.121173
0.178869 0.099284 0.121047
0.249749 0.096857 0.120474
0.326839 0.093055 0.119444
0.406885 0.087820 0.117997
0.486526 0.081259 0.116249
0.563347 0.073384 0.114372
0.637091 0.064134 0.112520
0.705735 0.061972 0.109689
0.766649 0.060274 0.106816
0.824895 0.058561 0.104004
0.881017 0.056865 0.101296
0.935424 0.055213 0.098698
0.988141 0.053639 0.096238
0.990931 0.053558 0.095528
0.028833 0.147961 0.113679
0.059599 0.146519 0.117782
0.110240 0.143803 0.113531
0.170230 0.140288 0.113305
0.239468 0.135975 0.112687
0.315167 0.130567 0.111573
0.394284 0.123836 0.109967
0.473349 0.115870 0.108051
0.549247 0.106736 0.105952
0.621067 0.096521 0.103808
0.689376 0.085326 0.101672
0.755199 0.073256 0.099586
0.820065 0.059885 0.097589
0.880382 0.056897 0.094617
0.934806 0.055242 0.091706
0.987487 0.053664 0.088897
0.990874 0.053565 0.087738
0.021143 0.205678 0.114697
0.048495 0.202860 0.114483
0.090731 0.201465 0.106527
0.161814 0.194778 0.106683
0.230690 0.189584 0.106350
0.305825 0.183614 0.105674
0.384437 0.176688 0.104485
0.463265 0.168883 0.102899
0.539104 0.160234 0.101059
0.611032 0.150428 0.099000
0.678995 0.139753 0.096908
0.743600 0.128207 0.094824
0.805355 0.115744 0.092766
0.864783 0.102290 0.090769
0.922388 0.087833 0.088826
0.978507 0.072498 0.086953
0.990745 0.058087 0.086507
0.017266 0.269933 0.117204
0.037059 0.266631 0.111595
0.062153 0.265476 0.100281
0.148757 0.261617 0.100427
0.222758 0.251673 0.100526
0.298855 0.245260 0.099817
0.378404 0.238085 0.098988
0.458427 0.230122 0.097679
0.535393 0.221530 0.096078
0.607692 0.212354 0.094331
0.675725 0.202713 0.092543
0.740067 0.192612 0.090750
0.801603 0.181502 0.088856
0.860656 0.169438 0.086940
0.917450 0.156614 0.085030
0.972112 0.143030 0.083232
0.990031 0.130080 0.082251
0.016272 0.337936 0.114773
0.025381 0.335726 0.109196
0.034931 0.335215 0.094551
0.115904 0.330679 0.095077
0.220782 0.326312 0.094769
0.292619 0.313444 0.094662
0.374111 0.306278 0.093442
0.455840 0.298378 0.092400
0.534373 0.289943 0.091060
0.607793 0.281078 0.089553
0.676595 0.271828 0.087986
0.741376 0.262163 0.086407
0.802757 0.252157 0.084870
0.861215 0.241737 0.083417
0.917140 0.230979 0.082056
0.970715 0.219903 0.080790
0.989742 0.208668 0.079824
0.015879 0.408142 0.112685
0.015584 0.408225 0.107099
0.017224 0.409114 0.089308
0.080902 0.403145 0.089844
0.185583 0.399279 0.089846
0.295963 0.394816 0.088812
0.369924 0.378890 0.088479
0.453824 0.371342 0.086936
0.534422 0.363177 0.085649
0.609138 0.354697 0.084466
0.678669 0.345940 0.083231
0.743892 0.336887 0.082027
0.805374 0.327535 0.080887
0.863693 0.317908 0.079839
0.919303 0.307989 0.079393
0.972321 0.297828 0.079131
0.991208 0.288477 0.079072
0.015775 0.479040 0.110646
0.015472 0.479102 0.105023
0.014391 0.481091 0.084574
0.041262 0.476802 0.084731
0.147671 0.473176 0.085085
0.268849 0.469171 0.084478
0.378407 0.464630 0.083559
0.451117 0.446095 0.083060
0.533637 0.438506 0.082063
0.610085 0.430491 0.081126
0.680522 0.422311 0.080321
0.746176 0.413918 0.079678
0.807742 0.405350 0.079211
0.865609 0.396757 0.078925
0.919900 0.388432 0.078649
0.971760 0.379793 0.078421
0.991198 0.371257 0.078422
0.015657 0.548495 0.108360
0.015348 0.548542 0.102751
0.014272 0.550138 0.082863
0.015380 0.549728 0.082879
0.104762 0.545044 0.083542
0.229146 0.541744 0.083292
0.360990 0.537197 0.082047
0.463366 0.532835 0.080714
0.531339 0.512675 0.080251
0.609087 0.505502 0.079319
0.680128 0.498388 0.078679
0.744651 0.491762 0.078245
0.805108 0.484871 0.077885
0.862247 0.477656 0.077590
0.916645 0.470080 0.077352
0.968565 0.462273 0.077162
0.989229 0.454664 0.077163
0.015299 0.614635 0.105665
0.014985 0.614644 0.100037
0.014005 0.615739 0.082299
0.014006 0.615676 0.082300
0.054642 0.612908 0.082514
0.184518 0.610059 0.082176
0.321118 0.606096 0.080715
0.456022 0.601146 0.078771
0.542602 0.598725 0.077973
0.602681 0.578076 0.077832
0.673378 0.572617 0.077324
0.739145 0.566684 0.076912
0.800355 0.560457 0.076581
0.857916 0.554029 0.076318
0.912539 0.547394 0.076110
0.964564 0.540500 0.075952
0.987102 0.533865 0.075949
0.014567 0.677520 0.102416
0.014251 0.677533 0.096793
0.013396 0.678260 0.081577
0.013396 0.678260 0.081577
0.015897 0.677649 0.081587
0.133193 0.674443 0.081136
0.276127 0.670825 0.079390
0.414662 0.667654 0.077782
0.532019 0.664950 0.076716
0.612037 0.662603 0.076075
0.665799 0.641117 0.076068
0.732148 0.635932 0.075679
0.794237 0.630350 0.075375
0.852589 0.624462 0.075140
0.907611 0.618476 0.074961
0.959789 0.612358 0.074832
0.984871 0.606530 0.074825
0.013395 0.737486 0.098531
0.013083 0.737516 0.093025
0.012376 0.737989 0.080614
0.012375 0.738047 0.080613
0.012379 0.737888 0.080616
0.072554 0.735600 0.080224
0.224261 0.732397 0.078357
0.369109 0.729938 0.076903
0.502648 0.727210 0.075694
0.602345 0.724666 0.074921
0.676199 0.722342 0.074434
0.724480 0.700121 0.074537
0.787077 0.695167 0.074256
0.845965 0.689892 0.074046
0.901758 0.684322 0.073894
0.954289 0.678783 0.073789
0.982584 0.673514 0.073781
0.011770 0.794785 0.094130
0.011459 0.794819 0.088677
0.010922 0.795187 0.079374
0.010920 0.795243 0.079373
0.010923 0.795145 0.079375
0.015613 0.794282 0.079346
0.164471 0.791211 0.077718
0.318805 0.788619 0.076140
0.460781 0.785964 0.074838
0.583590 0.783156 0.073899
0.667194 0.780804 0.073377
0.735872 0.778488 0.073023
0.779341 0.755575 0.073214
0.838628 0.750846 0.073025
0.894757 0.745896 0.072893
0.948008 0.740700 0.072809
0.980302 0.735866 0.072800
0.009470 0.849837 0.089579
0.009175 0.849857 0.084230
0.008830 0.850149 0.078163
0.008826 0.850231 0.078162
0.008830 0.850149 0.078163
0.008839 0.849958 0.078166
0.095040 0.847285 0.077284
0.262410 0.844302 0.075510
0.414324 0.841566 0.074080
0.546343 0.838844 0.073059
0.657458 0.836007 0.072385
0.727482 0.833881 0.072050
0.791642 0.831609 0.071805
0.830932 0.808072 0.072065
0.887401 0.803577 0.071949
0.940815 0.798948 0.071880
0.978095 0.794423 0.071870
0.006799 0.902787 0.085320
0.006486 0.902913 0.079849
0.006334 0.903091 0.077293
0.006331 0.903144 0.077292
0.006334 0.903091 0.077293
0.006340 0.902957 0.077295
0.013626 0.901524 0.077204
0.198702 0.897596 0.075040
0.362625 0.894566 0.073426
0.505378 0.891780 0.072293
0.624132 0.889056 0.071565
0.718669 0.886467 0.071129
0.783971 0.884391 0.070900
0.844295 0.882229 0.070738
0.879820 0.858074 0.071051
0.933572 0.853882 0.070991
0.976041 0.849745 0.070978
0.004147 0.953321 0.081073
0.003873 0.953508 0.076498
0.003870 0.953573 0.076497
0.003867 0.953626 0.076496
0.003869 0.953586 0.076496
0.003875 0.953481 0.076498
0.003885 0.953271 0.076501
0.125433 0.948728 0.074800
0.305164 0.945142 0.072894
0.459868 0.942212 0.071609
0.588163 0.939509 0.070803
0.695487 0.936875 0.070307
0.776087 0.934590 0.070036
0.837365 0.932628 0.069884
0.894301 0.930643 0.069782
0.926295 0.906025 0.070135
0.974218 0.902225 0.070118
0.002241 0.987507 0.077530
0.002144 0.987608 0.075987
0.002144 0.987608 0.075987
0.002144 0.987608 0.075987
0.002144 0.987608 0.075987
0.002144 0.987608 0.075987
0.002144 0.987608 0.075987
0.041040 0.984848 0.075226
0.242741 0.980640 0.072771
0.411140 0.977976 0.071258
0.550343 0.976000 0.070319
0.664572 0.974440 0.069749
0.762366 0.973181 0.069393
0.831055 0.972376 0.069206
0.888683 0.971777 0.069085
0.942072 0.971308 0.068997
0.969147 0.951881 0.069290
0.038143 0.078413 0.175741
0.066282 0.070586 0.176903
0.125431 0.069974 0.173267
0.190873 0.068457 0.170241
0.266571 0.067306 0.168521
0.347272 0.067590 0.165653
0.427275 0.067188 0.161725
0.504664 0.066244 0.157630
0.577361 0.064941 0.153584
0.645386 0.063425 0.148822
0.709399 0.061790 0.144362
0.770220 0.060099 0.140170
0.828459 0.058395 0.136242
0.884607 0.056712 0.132595
0.939070 0.055076 0.129219
0.991169 0.053542 0.126128
0.991162 0.053542 0.125298
0.034048 0.114686 0.162934
0.067378 0.107091 0.162674
0.117385 0.099782 0.161871
0.179687 0.098027 0.160541
0.251069 0.095185 0.159434
0.328609 0.090940 0.157906
0.409026 0.085281 0.155137
0.489137 0.078252 0.152274
0.566625 0.069687 0.149619
0.640624 0.063544 0.146711
0.706457 0.061873 0.142685
0.767436 0.060182 0.138690
0.825801 0.058476 0.134911
0.882034 0.056791 0.131371
0.936585 0.055151 0.128052
0.989446 0.053592 0.125030
0.991153 0.053543 0.124173
0.029903 0.147426 0.136694
0.061466 0.145965 0.143420
0.109672 0.144560 0.150273
0.168971 0.142723 0.149609
0.237753 0.139950 0.148455
0.312998 0.136051 0.146807
0.391624 0.130882 0.144757
0.470342 0.124475 0.142375
0.545985 0.116898 0.139918
0.617438 0.108284 0.137455
0.685198 0.098666 0.135074
0.749881 0.088041 0.132832
0.812161 0.076464 0.130741
0.872996 0.063945 0.128824
0.933142 0.055255 0.126728
0.986400 0.053681 0.123782
0.991142 0.053543 0.122843
0.021769 0.205252 0.126413
0.050630 0.202028 0.140814
0.098849 0.199604 0.148267
0.161412 0.195538 0.138100
0.229614 0.190547 0.136526
0.304320 0.184808 0.134516
0.382850 0.178085 0.131980
0.462075 0.170202 0.129022
0.538433 0.161344 0.125936
0.610412 0.151626 0.122827
0.678427 0.141014 0.119786
0.743041 0.129575 0.116809
0.804791 0.117135 0.113976
0.864155 0.103738 0.111234
0.921609 0.089414 0.108626
0.977521 0.074060 0.106197
0.990851 0.059760 0.105344
0.017975 0.269380 0.131097
0.040078 0.265321 0.147702
0.085861 0.262251 0.146422
0.140417 0.260470 0.128712
0.222646 0.252583 0.127462
0.298192 0.246437 0.125941
0.377377 0.239588 0.124244
0.457159 0.231956 0.122091
0.534082 0.223666 0.119687
0.606428 0.214809 0.117194
0.675007 0.204970 0.114437
0.739866 0.194455 0.111722
0.801574 0.183212 0.109088
0.860605 0.171205 0.106537
0.917324 0.158458 0.104068
0.971916 0.144936 0.101732
0.989464 0.132055 0.100298
0.017455 0.337012 0.137310
0.029137 0.333922 0.156363
0.072321 0.330306 0.144935
0.108683 0.329364 0.120476
0.211117 0.325416 0.119008
0.292891 0.314652 0.117984
0.373978 0.307733 0.116135
0.455383 0.300174 0.114659
0.533753 0.292018 0.112784
0.607071 0.283491 0.110747
0.675773 0.274523 0.108683
0.740529 0.265201 0.106651
0.801795 0.255506 0.104668
0.860426 0.245079 0.102598
0.916761 0.233783 0.100482
0.970728 0.221953 0.098482
0.989435 0.210832 0.097041
0.017625 0.406998 0.144992
0.018372 0.406446 0.155411
0.056371 0.401825 0.143740
0.074550 0.401762 0.112643
0.176708 0.398241 0.111865
0.294208 0.393820 0.109869
0.370466 0.380382 0.109000
0.454199 0.373026 0.106761
0.534337 0.365118 0.105379
0.608805 0.356927 0.103867
0.678245 0.348453 0.102275
0.743295 0.339653 0.100673
0.804634 0.330629 0.099132
0.862813 0.321282 0.097676
0.918286 0.311692 0.096344
0.971203 0.301887 0.095133
0.991033 0.292804 0.094176
0.018182 0.477853 0.154037
0.018175 0.477649 0.153918
0.038772 0.474647 0.142560
0.042198 0.475124 0.105084
0.139275 0.472154 0.104866
0.258601 0.468501 0.103293
0.376611 0.463868 0.100781
0.451825 0.447789 0.099972
0.534099 0.440371 0.097702
0.610195 0.432569 0.096258
0.680395 0.424617 0.095171
0.745830 0.416462 0.094064
0.807216 0.408126 0.093000
0.864698 0.399973 0.092028
0.918836 0.391866 0.091020
0.970591 0.383465 0.090002
0.990762 0.375204 0.089241
0.018821 0.547404 0.164214
0.018136 0.547410 0.152331
0.023823 0.546316 0.141127
0.019729 0.547559 0.097977
0.096897 0.544278 0.097895
0.219226 0.541260 0.096622
0.349989 0.537005 0.094074
0.461532 0.532409 0.091308
0.532027 0.514511 0.090808
0.609591 0.507479 0.088717
0.680041 0.500684 0.087387
0.744340 0.494239 0.086850
0.804611 0.487497 0.086219
0.861575 0.480436 0.085506
0.915855 0.473090 0.084749
0.967620 0.465462 0.083952
0.988866 0.458053 0.083337
0.018552 0.613816 0.162455
0.017846 0.613800 0.150306
0.017198 0.613696 0.139056
0.014721 0.614588 0.095262
0.046762 0.612445 0.091047
0.174595 0.609787 0.089925
0.310088 0.606031 0.087445
0.444987 0.601215 0.084149
0.540796 0.598481 0.082007
0.603100 0.580142 0.082149
0.673642 0.574729 0.080507
0.739280 0.568863 0.079039
0.800204 0.562829 0.078763
0.857601 0.556500 0.078361
0.912098 0.549987 0.077893
0.964005 0.543273 0.077359
0.986939 0.536804 0.076943
0.017894 0.676921 0.160098
0.017167 0.676880 0.147629
0.016500 0.676784 0.136114
0.013986 0.677485 0.092053
0.013719 0.677681 0.084047
0.123152 0.674394 0.083046
0.264829 0.670929 0.080560
0.403575 0.667694 0.077893
0.530359 0.664844 0.076734
0.610376 0.662513 0.076090
0.666205 0.643161 0.076025
0.732449 0.638014 0.075639
0.794473 0.632472 0.075335
0.852562 0.626724 0.075101
0.907443 0.620797 0.074924
0.959508 0.614803 0.074794
0.984788 0.609065 0.074786
0.016775 0.737000 0.156895
0.016028 0.736974 0.144100
0.015343 0.736880 0.132281
0.012816 0.737464 0.088275
0.012382 0.737743 0.080619
0.061846 0.735665 0.080322
0.212792 0.732438 0.078477
0.357587 0.730009 0.077018
0.491984 0.727330 0.075786
0.600633 0.724598 0.074936
0.674614 0.722288 0.074445
0.724808 0.702041 0.074499
0.787310 0.697123 0.074220
0.846166 0.691870 0.074011
0.901786 0.686430 0.073859
0.954179 0.680916 0.073755
0.982505 0.675746 0.073746
0.015177 0.794358 0.152809
0.014409 0.794325 0.139643
0.013710 0.794255 0.127592
0.011189 0.794811 0.083914
0.010927 0.795019 0.079378
0.012661 0.794552 0.079371
0.152187 0.791287 0.077847
0.306531 0.788715 0.076264
0.449445 0.786073 0.074937
0.573745 0.783321 0.073969
0.665531 0.780756 0.073388
0.734275 0.778453 0.073032
0.779613 0.757434 0.073180
0.838853 0.752724 0.072992
0.894930 0.747766 0.072861
0.948105 0.742635 0.072777
0.980228 0.737854 0.072769
0.012766 0.849506 0.148351
0.012013 0.849490 0.134957
0.011329 0.849399 0.122692
0.008908 0.849936 0.079414
0.008835 0.850040 0.078165
0.008842 0.849889 0.078168
0.081396 0.847449 0.077432
0.249311 0.844471 0.075645
0.402089 0.841712 0.074188
0.535809 0.838982 0.073134
0.648322 0.836184 0.072435
0.725842 0.833863 0.072059
0.790111 0.831603 0.071812
0.831158 0.809845 0.072033
0.887575 0.805370 0.071919
0.940980 0.800733 0.071850
0.978027 0.796216 0.071841
0.010147 0.902354 0.143734
0.009361 0.902338 0.130028
0.008652 0.902305 0.117604
0.006341 0.902930 0.077295
0.006338 0.902997 0.077294
0.006343 0.902904 0.077296
0.010088 0.901853 0.077252
0.184422 0.897800 0.075195
0.349442 0.894740 0.073546
0.493940 0.891962 0.072374
0.614446 0.889242 0.071618
0.716953 0.886465 0.071137
0.782356 0.884400 0.070906
0.842772 0.882236 0.070742
0.879998 0.859770 0.071021
0.933704 0.855570 0.070963
0.975979 0.851467 0.070950
0.007552 0.952698 0.138963
0.006733 0.952726 0.125000
0.006004 0.952703 0.112521
0.003877 0.953429 0.076499
0.003873 0.953508 0.076498
0.003877 0.953442 0.076499
0.003886 0.953245 0.076502
0.109324 0.949035 0.074994
0.290697 0.945382 0.073032
0.447416 0.942414 0.071701
0.577695 0.939706 0.070861
0.686449 0.937075 0.070344
0.774415 0.934612 0.070041
0.835775 0.932648 0.069888
0.892837 0.930647 0.069785
0.926446 0.907651 0.070107
0.974164 0.903858 0.070090
0.005714 0.986761 0.135250
0.004862 0.986819 0.121033
0.004109 0.986893 0.108451
0.002144 0.987608 0.075987
0.002144 0.987608 0.075987
0.002144 0.987608 0.075987
0.002144 0.987608 0.075987
0.021095 0.985450 0.075564
0.226838 0.980917 0.072936
0.397371 0.978179 0.071366
0.539046 0.976157 0.070385
0.654994 0.974568 0.069791
0.754012 0.973285 0.069419
0.829413 0.972394 0.069210
0.887170 0.971791 0.069088
0.940715 0.971318 0.068999
0.969267 0.953443 0.069263
0.035086 0.082688 0.258440
0.054596 0.069828 0.263352
0.119383 0.069325 0.255174
0.190032 0.067689 0.248363
0.265866 0.067316 0.241011
0.347194 0.067561 0.236609
0.428386 0.067115 0.230445
0.505811 0.066142 0.224043
0.578486 0.064823 0.217928
0.646544 0.063299 0.212321
0.710651 0.061664 0.207207
0.771590 0.059980 0.202628
0.829971 0.058289 0.198564
0.886243 0.056626 0.193728
0.940831 0.055018 0.189376
