public/lut.cube
#Created by: Affinity Photo (Serif Europe Ltd.)
TITLE "film-01"
#LUT size
LUT_3D_SIZE 9
#data domain
DOMAIN_MIN 0.0 0.0 0.0
DOMAIN_MAX 1.0 1.0 1.0
#LUT data points
0.041199 0.070964 0.109267
0.125091 0.071291 0.109733
0.263633 0.068347 0.108859
0.426095 0.067322 0.105484
0.576825 0.065091 0.101041
0.708821 0.061929 0.096356
0.827562 0.058512 0.091252
0.937670 0.055163 0.086349
0.990846 0.053569 0.083704
0.028312 0.148487 0.101453
0.111107 0.143011 0.098487
0.241856 0.134884 0.098758
0.396912 0.122646 0.097388
0.551323 0.105664 0.094741
0.691491 0.084141 0.091583
0.822623 0.058666 0.089337
0.936072 0.055213 0.085472
0.990846 0.053569 0.083704
0.016126 0.271681 0.094436
0.068027 0.266879 0.088503
0.223128 0.250743 0.090155
0.379729 0.236513 0.089630
0.536944 0.219269 0.087724
0.677200 0.199748 0.085411
0.802682 0.178295 0.083195
0.917545 0.154509 0.081260
0.990261 0.127879 0.080355
0.014660 0.410158 0.089268
0.016516 0.410457 0.084210
0.195171 0.399532 0.086030
0.369428 0.376847 0.085606
0.534391 0.360788 0.083793
0.679032 0.343121 0.081884
0.805931 0.324226 0.080380
0.920003 0.304134 0.079412
0.991114 0.284014 0.079076
0.014355 0.550035 0.084417
0.014272 0.550382 0.082861
0.114042 0.544978 0.083562
0.372466 0.536897 0.081904
0.530794 0.510396 0.080321
0.680059 0.495890 0.078727
0.805396 0.482072 0.077932
0.917183 0.466932 0.077399
0.989317 0.451153 0.077216
0.013395 0.678335 0.081576
0.013393 0.678470 0.081574
0.019427 0.677307 0.081594
0.288343 0.670554 0.079199
0.534118 0.664975 0.076697
0.665609 0.639004 0.076110
0.794198 0.628157 0.075414
0.907806 0.616117 0.075000
0.984954 0.603973 0.074865
0.010920 0.795257 0.079372
0.010916 0.795383 0.079369
0.010922 0.795187 0.079374
0.177934 0.791050 0.077577
0.472653 0.785764 0.074738
0.669157 0.780793 0.073365
0.779293 0.753667 0.073249
0.894728 0.743977 0.072925
0.980378 0.733832 0.072832
0.006333 0.903117 0.077292
0.006327 0.903238 0.077290
0.006332 0.903131 0.077292
0.028147 0.901117 0.077008
0.376358 0.894321 0.073305
0.634019 0.888854 0.071513
0.785768 0.884353 0.070894
0.879852 0.856334 0.071080
0.976105 0.847996 0.071007
0.002144 0.987608 0.075987
0.002144 0.987608 0.075987
0.002144 0.987608 0.075987
0.002144 0.987608 0.075987
0.259253 0.980357 0.072604
0.561809 0.975840 0.070254
0.770816 0.973078 0.069367
0.890379 0.971761 0.069082
0.969192 0.950304 0.069316
0.038143 0.078413 0.175741
0.125431 0.069974 0.173267
0.266571 0.067306 0.168521
0.427275 0.067188 0.161725
0.577361 0.064941 0.153584
0.709399 0.061790 0.144362
0.828459 0.058395 0.136242
0.939070 0.055076 0.129219
0.991162 0.053542 0.125298
0.029903 0.147426 0.136694
0.109672 0.144560 0.150273
0.237753 0.139950 0.148455
0.391624 0.130882 0.144757
0.545985 0.116898 0.139918
0.685198 0.098666 0.135074
0.812161 0.076464 0.130741
0.933142 0.055255 0.126728
0.991142 0.053543 0.122843
0.017975 0.269380 0.131097
0.085861 0.262251 0.146422
0.222646 0.252583 0.127462
0.377377 0.239588 0.124244
0.534082 0.223666 0.119687
0.675007 0.204970 0.114437
0.801574 0.183212 0.109088
0.917324 0.158458 0.104068
0.989464 0.132055 0.100298
0.017625 0.406998 0.144992
0.056371 0.401825 0.143740
0.176708 0.398241 0.111865
0.370466 0.380382 0.109000
0.534337 0.365118 0.105379
0.678245 0.348453 0.102275
0.804634 0.330629 0.099132
0.918286 0.311692 0.096344
0.991033 0.292804 0.094176
0.018821 0.547404 0.164214
0.023823 0.546316 0.141127
0.096897 0.544278 0.097895
0.349989 0.537005 0.094074
0.532027 0.514511 0.090808
0.680041 0.500684 0.087387
0.804611 0.487497 0.086219
0.915855 0.473090 0.084749
0.988866 0.458053 0.083337
0.017894 0.676921 0.160098
0.016500 0.676784 0.136114
0.013719 0.677681 0.084047
0.264829 0.670929 0.080560
0.530359 0.664844 0.076734
0.666205 0.643161 0.076025
0.794473 0.632472 0.075335
0.907443 0.620797 0.074924
0.984788 0.609065 0.074786
0.015177 0.794358 0.152809
0.013710 0.794255 0.127592
0.010927 0.795019 0.079378
0.152187 0.791287 0.077847
0.449445 0.786073 0.074937
0.665531 0.780756 0.073388
0.779613 0.757434 0.073180
0.894930 0.747766 0.072861
0.980228 0.737854 0.072769
0.010147 0.902354 0.143734
0.008652 0.902305 0.117604
0.006338 0.902997 0.077294
0.010088 0.901853 0.077252
0.349442 0.894740 0.073546
0.614446 0.889242 0.071618
0.782356 0.884400 0.070906
0.879998 0.859770 0.071021
0.975979 0.851467 0.070950
0.005714 0.986761 0.135250
0.004109 0.986893 0.108451
0.002144 0.987608 0.075987
0.002144 0.987608 0.075987
0.226838 0.980917 0.072936
0.539046 0.976157 0.070385
0.754012 0.973285 0.069419
0.887170 0.971791 0.069088
0.969267 0.953443 0.069263
0.031449 0.087246 0.352171
0.102997 0.068451 0.352847
0.264739 0.067408 0.333178
0.427007 0.067120 0.313698
0.579737 0.064741 0.298301
0.712268 0.061565 0.284837
0.831828 0.058213 0.274333
0.942919 0.055001 0.266642
0.992418 0.053620 0.264297
0.025579 0.182728 0.307268
0.105328 0.159789 0.302143
0.238237 0.137023 0.295696
0.396322 0.125485 0.287642
0.552311 0.109275 0.281097
0.692533 0.088521 0.276067
0.821161 0.063807 0.270496
0.937703 0.055146 0.263340
0.992362 0.053614 0.258459
0.022965 0.267228 0.223563
0.094160 0.260473 0.244584
0.222863 0.254450 0.265166
0.377257 0.246413 0.261897
0.535492 0.234950 0.257405
0.677547 0.220667 0.252823
0.804365 0.203852 0.248609
0.919765 0.184485 0.244961
0.989832 0.164132 0.242952
0.020274 0.405934 0.192138
0.066735 0.400130 0.244522
0.204207 0.394588 0.268967
0.373390 0.383188 0.234431
0.535879 0.368859 0.228310
0.679016 0.353230 0.221945
0.805285 0.336074 0.215146
0.919188 0.317002 0.208131
0.991844 0.297205 0.202000
0.021990 0.546771 0.218115
0.035358 0.544674 0.275829
0.177796 0.540188 0.272500
0.330922 0.535962 0.209503
0.535532 0.517675 0.201249
0.680220 0.505434 0.195815
0.803737 0.493014 0.192443
0.914218 0.479403 0.188203
0.988217 0.465239 0.184235
0.023048 0.676416 0.246646
0.026786 0.675764 0.308197
0.136548 0.672293 0.273977
0.245967 0.669927 0.181422
0.510850 0.664325 0.170655
0.667254 0.646555 0.165396
0.794521 0.636082 0.158866
0.906401 0.624934 0.157638
0.983797 0.613680 0.155535
0.022364 0.794025 0.276010
0.024196 0.793756 0.307895
0.073231 0.791652 0.273627
0.131980 0.790620 0.149787
0.427998 0.785447 0.140237
0.662595 0.779816 0.129953
0.780070 0.760290 0.127541
0.894935 0.750756 0.120726
0.979322 0.741167 0.120392
0.019654 0.902123 0.307060
0.019637 0.901950 0.306637
0.017650 0.901604 0.272396
0.013729 0.900908 0.116688
0.325091 0.894192 0.108983
0.595405 0.888766 0.100926
0.779314 0.883662 0.093914
0.880261 0.862476 0.093622
0.975361 0.854304 0.089388
0.018027 0.986469 0.341053
0.015947 0.986508 0.306177
0.013801 0.986547 0.270269
0.002964 0.987121 0.089383
0.197488 0.980932 0.084758
0.516962 0.976049 0.078714
0.737564 0.973262 0.073640
0.884581 0.971777 0.069577
0.969867 0.956385 0.070137
0.028399 0.097057 0.535571
0.065635 0.065755 0.549138
0.246625 0.067623 0.522668
0.422848 0.067259 0.495182
0.577338 0.064772 0.468777
0.713237 0.061512 0.453225
0.835786 0.058142 0.440505
0.947527 0.055048 0.431073
0.994063 0.053830 0.428047
0.026669 0.200005 0.484733
0.096607 0.175529 0.478560
0.210662 0.134949 0.479814
0.395335 0.122146 0.461408
0.555782 0.103219 0.449186
0.700512 0.077386 0.444222
0.830984 0.058276 0.440474
0.942935 0.055172 0.432085
0.994078 0.053833 0.429519
0.030171 0.330972 0.442230
0.088740 0.302635 0.439954
0.220561 0.274179 0.436325
0.380139 0.243026 0.430987
0.542633 0.228972 0.426146
0.685744 0.212491 0.423208
0.812670 0.193333 0.420987
0.927706 0.171651 0.416777
0.991197 0.149002 0.414790
0.028859 0.403482 0.336851
0.077598 0.398627 0.362310
0.214476 0.393103 0.386324
0.376065 0.386021 0.408900
0.538878 0.377048 0.406891
0.683161 0.366368 0.404554
0.809798 0.354323 0.402519
0.921166 0.342245 0.400484
0.991648 0.328966 0.399400
0.025528 0.546163 0.276908
0.040231 0.544124 0.336304
0.189938 0.538996 0.392865
0.364444 0.532548 0.417388
0.538439 0.521175 0.380313
0.680164 0.510516 0.374924
0.802829 0.498874 0.369507
0.913125 0.485791 0.363445
0.988136 0.471358 0.357428
0.026802 0.676097 0.308518
0.030609 0.675440 0.370626
0.153771 0.671098 0.428297
0.336710 0.667151 0.422928
0.492243 0.664080 0.355683
0.669026 0.650365 0.347773
0.794920 0.640370 0.342262
0.905813 0.629882 0.338900
0.983707 0.619261 0.335335
0.026056 0.793943 0.340496
0.029721 0.793616 0.403993
0.095959 0.791128 0.463017
0.295653 0.787104 0.426487
0.409166 0.785091 0.328754
0.646783 0.779777 0.316965
0.781734 0.763731 0.311152
0.895752 0.754514 0.304028
0.979336 0.745395 0.303422
0.023533 0.902010 0.373266
0.027284 0.901695 0.437223
0.029080 0.901198 0.467680
0.242570 0.894915 0.428880
0.304665 0.893849 0.297386
0.578476 0.888587 0.286148
0.777810 0.883363 0.274284
0.881760 0.865749 0.271062
0.975490 0.857765 0.263387
0.022015 0.986381 0.408190
0.025759 0.986271 0.471650
0.025716 0.986272 0.470914
0.178530 0.980773 0.432577
0.200473 0.980310 0.263218
0.497236 0.975870 0.252955
0.722268 0.973193 0.241502
0.882795 0.971758 0.230353
0.971230 0.959372 0.228843
0.029535 0.107036 0.686747
0.032299 0.063740 0.716066
0.195721 0.067519 0.689477
0.415717 0.067463 0.656736
0.573266 0.064875 0.633191
0.711380 0.061564 0.611342
0.835201 0.058224 0.597290
0.949442 0.055191 0.588530
0.995698 0.054055 0.585085
0.028778 0.216892 0.639966
0.080754 0.191635 0.636100
0.164534 0.132341 0.647632
0.377924 0.118889 0.626786
0.555037 0.098458 0.612813
0.701400 0.072653 0.601488
0.832678 0.058293 0.596984
0.947479 0.055241 0.588768
0.995702 0.054056 0.585524
0.033198 0.351680 0.602521
0.074978 0.323940 0.601857
0.214099 0.294431 0.598786
0.351525 0.241158 0.599520
0.543983 0.225232 0.588348
0.690263 0.206055 0.581442
0.819771 0.181984 0.579367
0.935118 0.157115 0.577106
0.992510 0.131842 0.577035
0.040235 0.495968 0.577186
0.066394 0.469522 0.577856
0.210283 0.440139 0.576299
0.376406 0.408577 0.573631
0.542802 0.373754 0.569598
0.690115 0.360565 0.567728
0.816096 0.347379 0.567401
0.927416 0.333364 0.567070
0.991950 0.318135 0.565423
0.036778 0.544418 0.458619
0.050104 0.542822 0.486285
0.200326 0.537760 0.510042
0.373455 0.531113 0.531831
0.538613 0.525428 0.551893
0.679670 0.520090 0.550589
0.802745 0.513432 0.549095
0.913224 0.505352 0.547557
0.987390 0.496467 0.546851
0.032541 0.675597 0.402078
0.034414 0.675088 0.432379
0.159753 0.670574 0.487894
0.345276 0.666678 0.538560
0.519974 0.662413 0.559384
0.669833 0.653931 0.526606
0.794311 0.644544 0.521788
0.904482 0.634629 0.517112
0.983488 0.624402 0.512564
0.029729 0.793872 0.404317
0.033296 0.793523 0.465940
0.102069 0.790906 0.521615
0.307550 0.786445 0.569890
0.493305 0.782383 0.564373
0.630499 0.779358 0.504614
0.782859 0.766901 0.497669
0.895696 0.758124 0.492931
0.979265 0.749567 0.490597
0.027298 0.901881 0.437601
0.030857 0.901531 0.498455
0.034146 0.900875 0.554755
0.258776 0.894000 0.599448
0.459313 0.889930 0.568071
0.561957 0.888101 0.481324
0.763861 0.883237 0.471175
0.883203 0.868869 0.466265
0.975749 0.861243 0.460465
0.025783 0.986270 0.472065
0.029242 0.986133 0.531159
0.032387 0.985968 0.585369
0.197265 0.980176 0.604406
0.419671 0.976632 0.572459
0.478483 0.976044 0.456254
0.707975 0.973571 0.446948
0.881869 0.972326 0.437068
0.973223 0.962704 0.434204
0.030604 0.117109 0.810573
0.033603 0.064377 0.847970
0.135772 0.066993 0.827306
0.362257 0.068070 0.797121
0.567067 0.065009 0.769509
0.708066 0.061639 0.750470
0.833725 0.058305 0.733971
0.948848 0.055354 0.722014
0.997098 0.054234 0.718812
0.030812 0.233652 0.768705
0.055890 0.208358 0.768134
0.109091 0.128508 0.787218
0.327421 0.116013 0.768859
0.552112 0.092499 0.752192
0.701275 0.066195 0.743630
0.831409 0.058366 0.731424
0.947032 0.055398 0.722207
0.997102 0.054234 0.719220
0.036060 0.372658 0.738092
0.050986 0.345991 0.739299
0.201485 0.315126 0.736439
0.301989 0.239449 0.743069
0.529549 0.222019 0.730820
0.690819 0.201136 0.722505
0.820884 0.176938 0.714363
0.938246 0.147605 0.712869
0.993567 0.115339 0.712634
0.043202 0.518054 0.716253
0.044384 0.493399 0.718556
0.198302 0.463316 0.717294
0.372307 0.431140 0.715350
0.516263 0.372133 0.715430
0.691534 0.357022 0.708194
0.818388 0.342256 0.703762
0.932346 0.323827 0.703122
0.992129 0.305766 0.702973
0.048998 0.652472 0.700276
0.048171 0.630655 0.702186
0.188382 0.603959 0.700478
0.366103 0.576833 0.697429
0.535388 0.548688 0.694071
0.680808 0.518091 0.690708
0.806594 0.509275 0.689214
0.918115 0.499437 0.689044
0.987283 0.488939 0.689932
0.043305 0.674495 0.575945
0.044883 0.673904 0.601271
0.170071 0.669896 0.621946
0.351547 0.666068 0.640150
0.524532 0.661755 0.657472
0.669279 0.657245 0.674485
0.793056 0.652455 0.673544
0.903508 0.646837 0.672540
0.982552 0.640894 0.672138
0.036702 0.793650 0.525073
0.038298 0.793302 0.552529
0.107189 0.790672 0.576171
0.311256 0.786127 0.620721
0.498562 0.781689 0.662793
0.652675 0.777402 0.680777
0.782842 0.769717 0.653080
0.894539 0.761457 0.649321
0.978873 0.753404 0.646220
0.030868 0.901716 0.498779
0.034161 0.901325 0.555339
0.037196 0.900630 0.607549
0.262778 0.893636 0.648769
0.466593 0.889001 0.689733
0.630843 0.885173 0.685574
0.749010 0.882559 0.635107
0.883749 0.871574 0.629986
0.975647 0.864360 0.626867
0.029258 0.986132 0.531443
0.032422 0.985966 0.585971
0.035319 0.985777 0.636353
0.204071 0.979824 0.677254
0.429454 0.976044 0.716906
0.605951 0.974147 0.690830
0.693165 0.973548 0.617894
0.869090 0.972515 0.610656
0.973693 0.965478 0.607316
0.031645 0.127548 0.917542
0.034773 0.064917 0.961219
0.064332 0.065768 0.950644
0.300663 0.068504 0.918766
0.532512 0.065707 0.891240
0.703378 0.061723 0.870889
0.831164 0.058382 0.856408
0.947403 0.055496 0.844094
0.998151 0.054372 0.835191
0.032808 0.250610 0.880860
0.032131 0.226251 0.885029
0.053725 0.123074 0.910295
0.268282 0.112440 0.891078
0.505903 0.090152 0.876800
0.699820 0.061816 0.867187
0.829088 0.058436 0.854151
0.945790 0.055532 0.842292
0.998151 0.054372 0.835639
0.038769 0.393868 0.856734
0.037517 0.368084 0.859205
0.182020 0.336203 0.856425
0.243246 0.237223 0.866635
0.483244 0.219894 0.857231
0.689346 0.195334 0.846708
0.820553 0.170687 0.839880
0.938300 0.141295 0.832748
0.994366 0.108684 0.830360
0.045880 0.540213 0.839044
0.044736 0.515868 0.841045
0.178473 0.486304 0.840576
0.362843 0.453633 0.839281
0.469130 0.371052 0.843653
0.678877 0.354301 0.834765
0.817435 0.338460 0.828303
0.931843 0.319786 0.821768
0.992061 0.298337 0.821943
0.050957 0.672077 0.823113
0.050341 0.650734 0.825104
0.168500 0.625463 0.824249
0.353215 0.599090 0.821670
0.528986 0.571044 0.818519
0.656897 0.516917 0.818789
0.805911 0.506804 0.812004
0.919657 0.494892 0.808441
0.987026 0.481147 0.809250
0.052058 0.792139 0.807371
0.051878 0.772753 0.809672
0.135811 0.750417 0.808531
0.335147 0.726345 0.804790
0.515843 0.702090 0.801400
0.665801 0.677103 0.798564
0.793527 0.650426 0.795862
0.906442 0.643200 0.794962
0.982148 0.636066 0.796014
0.045535 0.793032 0.678445
0.046832 0.792625 0.700897
0.117026 0.789814 0.719808
0.317835 0.785196 0.735206
0.502279 0.780840 0.750663
0.655169 0.776550 0.766169
0.781759 0.772356 0.781728
0.892858 0.768218 0.781434
0.978037 0.764034 0.781600
0.038662 0.901140 0.633481
0.040042 0.900811 0.657428
0.041371 0.900188 0.680346
0.266168 0.893246 0.695150
0.468844 0.888575 0.733793
0.633791 0.884339 0.771459
0.767398 0.880561 0.788177
0.883339 0.874032 0.764470
0.975320 0.867335 0.762234
0.032441 0.985965 0.586305
0.035352 0.985775 0.636937
0.038041 0.985564 0.684138
0.207719 0.979579 0.722388
0.431826 0.975821 0.759877
0.610183 0.973704 0.797362
0.750748 0.972682 0.794692
0.855419 0.972408 0.751034
0.973728 0.967869 0.747789
0.032383 0.138692 0.988604
0.035096 0.065061 0.991834
0.035096 0.065061 0.991834
0.231124 0.068552 0.998215
0.478045 0.066959 1.000000
0.685705 0.062114 0.981741
0.827574 0.058454 0.967456
0.945074 0.055618 0.956390
0.998225 0.054499 0.948015
0.034823 0.268026 0.983595
0.033990 0.242862 0.986934
0.032684 0.116911 0.989072
0.200953 0.108042 0.995361
0.451812 0.087270 0.989762
0.671591 0.062472 0.980330
0.825685 0.058503 0.965406
0.943623 0.055649 0.954741
0.998223 0.054498 0.946700
0.041367 0.415254 0.965383
0.040068 0.388986 0.967133
0.155251 0.357619 0.965622
0.190347 0.233562 0.976900
0.427865 0.217813 0.970765
0.649899 0.193393 0.961723
0.818753 0.163547 0.953237
0.937235 0.133735 0.946754
0.995078 0.101013 0.940613
0.048277 0.561749 0.951067
0.047220 0.537697 0.952801
0.149840 0.509068 0.952694
0.347775 0.475963 0.951997
0.412676 0.369936 0.959397
0.639807 0.352309 0.952093
0.815173 0.333846 0.942663
0.930297 0.314739 0.936587
0.991833 0.293243 0.931044
0.051837 0.692492 0.935030
0.051661 0.671219 0.937526
0.136098 0.647026 0.937125
0.335012 0.620499 0.934560
0.519069 0.592564 0.931622
0.616986 0.515833 0.936555
0.793990 0.504464 0.927456
0.918342 0.491412 0.921887
0.986530 0.477544 0.917127
0.052804 0.809724 0.918971
0.052643 0.790698 0.920801
0.113613 0.769064 0.919918
0.318375 0.745172 0.916908
0.504988 0.721191 0.914311
0.660105 0.696244 0.911590
0.772100 0.649161 0.912122
0.905428 0.640921 0.906398
0.981601 0.632403 0.904232
0.052974 0.898957 0.887771
0.053514 0.898511 0.905993
0.053371 0.880708 0.907740
0.288060 0.856216 0.902103
0.487593 0.834111 0.898837
0.647441 0.812157 0.896146
0.778251 0.789801 0.894002
0.892959 0.766323 0.892056
0.977557 0.760978 0.892324
0.046385 0.900178 0.769319
0.047541 0.899771 0.789730
0.048658 0.899071 0.809326
0.272475 0.891975 0.821263
0.472762 0.887432 0.835467
0.635882 0.883446 0.850226
0.768553 0.879720 0.865164
0.882218 0.876416 0.880323
0.974827 0.873579 0.881225
0.040629 0.985328 0.729992
0.041831 0.985207 0.751447
0.042981 0.985085 0.772069
0.211793 0.979206 0.785979
0.433827 0.975589 0.800987
0.611493 0.973511 0.836829
0.752359 0.972401 0.872115
0.871313 0.972100 0.888492
0.973652 0.970100 0.868084
0.032340 0.152069 0.988454
0.035096 0.065061 0.991834
0.035096 0.065061 0.991834
0.157141 0.067862 0.996359
0.417605 0.067800 1.000000
0.641307 0.063458 1.000000
0.822927 0.058560 0.999921
0.941846 0.055707 0.999433
0.998294 0.054546 0.998449
0.035670 0.287221 0.990480
0.034661 0.261338 0.989748
0.032476 0.129138 0.988772
0.126549 0.103495 0.993316
0.390400 0.085170 0.999384
0.626501 0.063832 1.000000
0.810739 0.058872 0.999958
0.940574 0.055735 0.999459
0.998294 0.054546 0.998449
0.042911 0.437424 0.995907
0.041558 0.410905 0.994896
0.121433 0.380041 0.995919
0.129433 0.230266 0.992667
0.363510 0.216441 0.997633
0.603854 0.192032 0.997223
0.793653 0.160675 0.996177
0.934713 0.125859 0.995741
0.995498 0.092639 0.995896
0.049745 0.583045 0.997502
0.048745 0.559312 0.997418
0.111931 0.531990 0.996592
0.327025 0.498861 0.996320
0.362863 0.368374 0.996694
0.593901 0.350964 0.996463
0.781112 0.332215 0.994385
0.927990 0.309281 0.992594
0.991745 0.287468 0.992137
0.052345 0.712370 0.995145
0.052173 0.691417 0.995781
0.093398 0.668209 0.995107
0.312019 0.641403 0.991890
0.506088 0.613570 0.989799
0.570613 0.514882 0.992247
0.760172 0.502920 0.989514
0.916347 0.487678 0.987224
0.986195 0.473515 0.986428
0.053270 0.827159 0.991098
0.053124 0.808671 0.991815
0.065151 0.788853 0.991876
0.294030 0.763925 0.987225
0.491254 0.739876 0.984862
0.652443 0.715057 0.983261
0.737678 0.648322 0.984545
0.894670 0.639110 0.982186
0.981133 0.629727 0.981123
0.054052 0.931110 0.986647
0.053930 0.914219 0.987412
0.053801 0.896721 0.988189
0.273091 0.872495 0.982592
0.475103 0.850863 0.980098
0.639149 0.829237 0.978598
0.773460 0.806974 0.977619
0.873624 0.765266 0.977832
0.977091 0.759156 0.976849
0.053376 0.983667 0.963446
0.054263 0.983521 0.980233
0.054412 0.983487 0.984214
0.223603 0.971906 0.978868
0.448759 0.951629 0.976044
0.624312 0.932002 0.974772
0.762225 0.912424 0.974172
0.879301 0.892582 0.973972
0.974500 0.872092 0.974086
0.047450 0.984543 0.853189
0.048479 0.984403 0.872103
0.049466 0.984264 0.890322
0.215949 0.978453 0.902191
0.437582 0.974864 0.915345
0.613703 0.973006 0.929560
0.753362 0.972101 0.944098
0.871714 0.971915 0.958650
0.973532 0.972185 0.972713
