public/lut.cube
#Created by: Affinity Photo (Serif Europe Ltd.)
TITLE "film-01"
#LUT size
LUT_3D_SIZE 5
#data domain
DOMAIN_MIN 0.0 0.0 0.0
DOMAIN_MAX 1.0 1.0 1.0
#LUT data points
0.041199 0.070964 0.109267
0.263633 0.068347 0.108859
0.576825 0.065091 0.101041
0.827562 0.058512 0.091252
0.990846 0.053569 0.083704
0.016126 0.271681 0.094436
0.223128 0.250743 0.090155
0.536944 0.219269 0.087724
0.802682 0.178295 0.083195
0.990261 0.127879 0.080355
0.014355 0.550035 0.084417
0.114042 0.544978 0.083562
0.530794 0.510396 0.080321
0.805396 0.482072 0.077932
0.989317 0.451153 0.077216
0.010920 0.795257 0.079372
0.010922 0.795187 0.079374
0.472653 0.785764 0.074738
0.779293 0.753667 0.073249
0.980378 0.733832 0.072832
0.002144 0.987608 0.075987
0.002144 0.987608 0.075987
0.259253 0.980357 0.072604
0.770816 0.973078 0.069367
0.969192 0.950304 0.069316
0.031449 0.087246 0.352171
0.264739 0.067408 0.333178
0.579737 0.064741 0.298301
0.831828 0.058213 0.274333
0.992418 0.053620 0.264297
0.022965 0.267228 0.223563
0.222863 0.254450 0.265166
0.535492 0.234950 0.257405
0.804365 0.203852 0.248609
0.989832 0.164132 0.242952
0.021990 0.546771 0.218115
0.177796 0.540188 0.272500
0.535532 0.517675 0.201249
0.803737 0.493014 0.192443
0.988217 0.465239 0.184235
0.022364 0.794025 0.276010
0.073231 0.791652 0.273627
0.427998 0.785447 0.140237
0.780070 0.760290 0.127541
0.979322 0.741167 0.120392
0.018027 0.986469 0.341053
0.013801 0.986547 0.270269
0.197488 0.980932 0.084758
0.737564 0.973262 0.073640
0.969867 0.956385 0.070137
0.029535 0.107036 0.686747
0.195721 0.067519 0.689477
0.573266 0.064875 0.633191
0.835201 0.058224 0.597290
0.995698 0.054055 0.585085
0.033198 0.351680 0.602521
0.214099 0.294431 0.598786
0.543983 0.225232 0.588348
0.819771 0.181984 0.579367
0.992510 0.131842 0.577035
0.036778 0.544418 0.458619
0.200326 0.537760 0.510042
0.538613 0.525428 0.551893
0.802745 0.513432 0.549095
0.987390 0.496467 0.546851
0.029729 0.793872 0.404317
0.102069 0.790906 0.521615
0.493305 0.782383 0.564373
0.782859 0.766901 0.497669
0.979265 0.749567 0.490597
0.025783 0.986270 0.472065
0.032387 0.985968 0.585369
0.419671 0.976632 0.572459
0.707975 0.973571 0.446948
0.973223 0.962704 0.434204
0.031645 0.127548 0.917542
0.064332 0.065768 0.950644
0.532512 0.065707 0.891240
0.831164 0.058382 0.856408
0.998151 0.054372 0.835191
0.038769 0.393868 0.856734
0.182020 0.336203 0.856425
0.483244 0.219894 0.857231
0.820553 0.170687 0.839880
0.994366 0.108684 0.830360
0.050957 0.672077 0.823113
0.168500 0.625463 0.824249
0.528986 0.571044 0.818519
0.805911 0.506804 0.812004
0.987026 0.481147 0.809250
0.045535 0.793032 0.678445
0.117026 0.789814 0.719808
0.502279 0.780840 0.750663
0.781759 0.772356 0.781728
0.978037 0.764034 0.781600
0.032441 0.985965 0.586305
0.038041 0.985564 0.684138
0.431826 0.975821 0.759877
0.750748 0.972682 0.794692
0.973728 0.967869 0.747789
0.032340 0.152069 0.988454
0.035096 0.065061 0.991834
0.417605 0.067800 1.000000
0.822927 0.058560 0.999921
0.998294 0.054546 0.998449
0.042911 0.437424 0.995907
0.121433 0.380041 0.995919
0.363510 0.216441 0.997633
0.793653 0.160675 0.996177
0.995498 0.092639 0.995896
0.052345 0.712370 0.995145
0.093398 0.668209 0.995107
0.506088 0.613570 0.989799
0.760172 0.502920 0.989514
0.986195 0.473515 0.986428
0.054052 0.931110 0.986647
0.053801 0.896721 0.988189
0.475103 0.850863 0.980098
0.773460 0.806974 0.977619
0.977091 0.759156 0.976849
0.047450 0.984543 0.853189
0.049466 0.984264 0.890322
0.437582 0.974864 0.915345
0.753362 0.972101 0.944098
0.973532 0.972185 0.972713
